images/projects/git-do.svg

<?xml version="1.0" encoding="UTF-8" standalone="no"?>
<svg width="433px" height="132px" viewBox="0 0 433 132" version="1.1" xmlns="http://www.w3.org/2000/svg" xmlns:xlink="http://www.w3.org/1999/xlink" xmlns:sketch="http://www.bohemiancoding.com/sketch/ns">
    <!-- Generator: Sketch 3.3.3 (12081) - http://www.bohemiancoding.com/sketch -->
    <title>git-do</title>
    <desc>Created with Sketch.</desc>
    <defs></defs>
    <g id="Page-2" stroke="none" stroke-width="1" fill="none" fill-rule="evenodd" sketch:type="MSPage">
        <g id="c-center-s-copy-2" sketch:type="MSLayerGroup" transform="translate(246.000000, 2.000000)" stroke="#343D46" fill="#DFE1E8">
            <path d="M31.0162798,48 L0,48 L0,80 L31.0162798,80 C38.1209645,107.603635 63.1785691,128 93,128 C122.821431,128 147.879036,107.603635 154.98372,80 L186,80 L186,48 L154.98372,48 C147.879036,20.3963646 122.821431,5.40012479e-13 93,5.40012479e-13 C63.1785691,5.40012479e-13 38.1209645,20.3963646 31.0162798,48 L31.0162798,48 L31.0162798,48 Z M93,96 C110.673112,96 125,81.673112 125,64 C125,46.326888 110.673112,32 93,32 C75.326888,32 61,46.326888 61,64 C61,81.673112 75.326888,96 93,96 L93,96 L93,96 Z" id="c-center-s" sketch:type="MSShapeGroup"></path>
        </g>
        <path d="M186,82 L155.98372,82 C148.879036,109.603635 123.821431,130 94,130 C64.1785691,130 39.1209645,109.603635 32.0162798,82 L1,82 L1,50 L32.0162798,50 L32.0162798,50 C39.1209645,22.3963646 64.1785691,2 94,2 C123.821431,2 148.879036,22.3963646 155.98372,50 L186,50 L186,2 L266,66 L186,130 L186,82 L186,82 Z M94,98 C111.673112,98 126,83.673112 126,66 C126,48.326888 111.673112,34 94,34 C76.326888,34 62,48.326888 62,66 C62,83.673112 76.326888,98 94,98 L94,98 Z" id="c-center-s-copy" stroke="#DFE1E8" fill="#343D46" sketch:type="MSShapeGroup"></path>
    </g>
</svg>

<svg width="433" height="132" viewBox="0 0 433 132" xmlns="http://www.w3.org/2000/svg"><title>git-do</title><g fill="none" fill-rule="evenodd"><path d="M277 50h-31v32h31c7 27.6 32.2 48 62 48 29.8 0 55-20.4 62-48h31V50h-31c-7-27.6-32.2-48-62-48-29.8 0-55 20.4-62 48zm62 48c17.7 0 32-14.3 32-32s-14.3-32-32-32-32 14.3-32 32 14.3 32 32 32z" stroke="#343D46" fill="#DFE1E8"/><path d="M186 82h-30c-7 27.6-32.2 48-62 48-29.8 0-55-20.4-62-48H1V50h31C39 22.4 64.2 2 94 2c29.8 0 55 20.4 62 48h30V2l80 64-80 64V82zM94 98c17.7 0 32-14.3 32-32s-14.3-32-32-32-32 14.3-32 32 14.3 32 32 32z" stroke="#DFE1E8" fill="#343D46"/></g></svg>
